Papirus/22x22/mimetypes/application-x-hda.svg

<svg width="22" height="22" version="1.1" xmlns="http://www.w3.org/2000/svg">
 <path d="m2.0039063 7.2186492c-0.00227 0.037376-0.00356 0.074809-0.0039 0.1122527v7.6399941c2.343e-4 0.797993 0.4353891 1.535271 1.1416015 1.934204l6.7167972 3.795491c0.706405 0.399212 1.576797 0.399212 2.283202 0l6.716794-3.795491c0.706513-0.399104 1.141715-1.136828 1.141599-1.935164v-7.6390341c-0.0011-0.028175-0.0027-0.056316-0.0049-0.08443 0.0049-8.767e-4 -17.991194-0.0278241-17.991194-0.0278241z" style="opacity:.2"/>
 <path d="m2.0039063 6.867772c-0.00227 0.037376-0.00356 0.074809-0.0039 0.1122527v7.6399943c2.343e-4 0.797992 0.4353891 1.535271 1.1416015 1.934204l6.7167972 3.795491c0.706405 0.399212 1.576797 0.399212 2.283202 0l6.716796-3.795491c0.706511-0.399105 1.141713-1.136828 1.141597-1.935164v-7.6390343c-0.0011-0.028175-0.0027-0.056316-0.0049-0.084429 0.0049-8.777e-4 -17.991194-0.0278251-17.991194-0.0278251z" style="fill:#c25824"/>
 <path d="m11.053752 1v9.825e-4a2.2845733 2.260639 0 0 0-1.196221 0.3009579l-6.7219027 3.8406667a2.2845733 2.260639 0 0 0-1.1356283 1.8125621 2.2845733 2.260639 0 0 0 1.1356283 1.8310162l6.7219027 3.8406666a2.2845733 2.260639 0 0 0 2.284938 0l6.721903-3.8406666a2.2845733 2.260639 0 0 0 1.135628-1.8125698 2.2845733 2.260639 0 0 0-1.135628-1.8310155l-6.721903-3.8406668a2.2845733 2.260639 0 0 0-1.088717-0.3019333z" style="fill:#f36128"/>
 <path d="m11.053438 1v0.00137a2.2845733 2.260639 0 0 0-1.195313 0.3001616l-6.721875 3.8404643a2.2845733 2.260639 0 0 0-1.13625 1.8133221 2.2845733 2.260639 0 0 0 0.0196873 0.1672151 2.2845733 2.260639 0 0 1 1.1165627-1.62966l6.721875-3.8404608a2.2845733 2.260639 0 0 1 1.195312-0.3001646v-0.00137a2.2845733 2.260639 0 0 1 1.088438 0.3015351l6.721875 3.8404603a2.2845733 2.260639 0 0 1 1.116562 1.6454221 2.2845733 2.260639 0 0 0 0.019688-0.1651589 2.2845733 2.260639 0 0 0-1.13625-1.8311404l-6.721875-3.8404608a2.2845733 2.260639 0 0 0-1.088437-0.3015351z" style="fill:#ffffff;opacity:.2"/>
 <path d="m2.0042188 6.8675987c-0.00149 0.024614-0.00216 0.049363-0.00281 0.074013a2.2845733 2.260639 0 0 1 0.00773-0.074013h-0.00492zm-0.00352 0.093887c-1.034e-4 0.0061639-6.431e-4 0.012339-6.988e-4 0.0185035v7.6398028c2.344e-4 0.797992 0.4356626 1.535689 1.141875 1.934621l6.71625 3.795231c0.363471 0.205409 0.736251 0.305451 1.141875 0.299479v-7.721354a2.2845733 2.260639 0 0 1-1.142578-0.30085l-6.7218751-3.8404606a2.2845733 2.260639 0 0 1-1.1348438-1.8249727z" style="opacity:.1"/>
 <path d="m2.0196875 6.7901591a2.2845733 2.260639 0 0 0-0.0196875 0.1651589 2.2845733 2.260639 0 0 0 1.13625 1.8311404l6.721875 3.8404606a2.2845733 2.260639 0 0 0 2.28375 0l6.721875-3.8404606a2.2845733 2.260639 0 0 0 1.13625-1.8133221 2.2845733 2.260639 0 0 0-0.01969-0.1672151 2.2845733 2.260639 0 0 1-1.116563 1.62966l-6.721874 3.8404608a2.2845733 2.260639 0 0 1-2.28375 0l-6.721873-3.8404608a2.2845733 2.260639 0 0 1-1.1165625-1.6454221z" style="opacity:.1"/>
 <path d="m15.149843 10.087372c-1.424234 0.810707-3.1718 1.279972-4.06012 1.40807-0.707278 0.101992-1.587111 0.112577-2.6277432-0.01707-0.8381916-0.47889-1.3589107-0.774748-1.8683186-1.068191 0.7723141 0.111861 1.7119505 0.216317 2.5891008 0.291473 1.244398 0.106622 3.11051-0.324115 4.535993-1.1185418 0.09562-0.05326 0.190438-0.108763 0.284343-0.166322 2.140114-1.3121623 1.96039-3.1775929 0.200198-4.240534-1.973131-1.1918695-4.611403-1.2456888-6.6984053 0.050267-1.4009422 0.8698681-1.794928 2.2556485-0.2943475 3.0755078 1.1795634 0.6445611 2.9236078 0.6956418 4.2683718-0.0547049 1.097112-0.6121954 0.815244-1.2892976 0.369749-1.5524123-0.423829-0.2503179-1.230899-0.4205832-1.996383-0.1220049-0.616007 0.2402712-0.80793 0.9714867 0.445017 1.0663365-0.528062 0.3401144-1.351193 0.4245116-1.9896066 0.0886228-1.246181-0.6558983-0.4703191-1.6719937 0.4573523-2.0783871 1.7141263-0.7510252 3.2109213-0.5195333 4.4743883 0.2430211 1.308067 0.7897046 1.213847 2.1979295-0.368204 3.130098-1.251992 0.737572-2.984491 1.2688538-5.5222749 0.63644-2.5377837-0.632415-3.181554-2.0229885-2.6785336-3.5065426 0.4087559-1.1622242 2.1511314-2.4477646 4.6327215-2.8220769 2.481591-0.3743126 4.468563-0.1070926 6.317214 1.0181046 2.613 1.5908201 2.63333 3.9721541-0.470513 5.7388477h1e-6" style="opacity:.2"/>
 <path d="m15.149843 9.7365882c-1.424234 0.8107068-3.1718 1.2799718-4.06012 1.4080698-0.888321 0.128098-2.064548 0.111671-3.4659348-0.145177l-1.8953305-1.0828738c0.8397457 0.1620468 2.2099068 0.3276388 3.4543043 0.4342618 1.244398 0.106622 3.11051-0.324115 4.535993-1.1185418 0.09562-0.05326 0.190438-0.108763 0.284343-0.166321 2.140114-1.3121633 1.96039-3.1775938 0.200198-4.2405349-1.973131-1.1918695-4.611403-1.2456888-6.6984053 0.050267-1.4009422 0.8698681-1.794928 2.2556485-0.2943475 3.0755078 1.1795634 0.6445611 2.9236078 0.6956418 4.2683718-0.0547049 1.097112-0.6121955 0.815244-1.2892976 0.369749-1.5524123-0.423829-0.2503179-1.230899-0.4205832-1.996383-0.1220049-0.616007 0.2402712-0.80793 0.9714867 0.445017 1.0663365-0.528062 0.3401144-1.351193 0.4245116-1.9896066 0.0886228-1.246181-0.6558983-0.4703191-1.6719937 0.4573523-2.0783871 1.7141263-0.7510253 3.2109213-0.5195333 4.4743883 0.2430211 1.308067 0.7897046 1.213847 2.1979295-0.368204 3.1300979-1.251992 0.737572-2.984491 1.268854-5.5222749 0.63644-2.5377837-0.632415-3.181554-2.0229884-2.6785336-3.5065425 0.4087559-1.1622242 2.1511314-2.4477646 4.6327215-2.8220769 2.481591-0.3743126 4.468563-0.107093 6.317214 1.0181046 2.613 1.59082 2.63333 3.9721541-0.470513 5.7388478h1e-6" style="fill:#e4e4e4"/>
</svg>

<svg xmlns="http://www.w3.org/2000/svg" width="22" height="22" version="1.1">
 <path style="opacity:0.2" d="M 2.0039,7.2186 C 2.0016,7.256 2.0003,7.2935 2,7.3309 V 14.971 C 2.0002,15.769 2.4354,16.506 3.1416,16.905 L 9.8584,20.701 C 10.565,21.1 11.435,21.1 12.142,20.701 L 18.858,16.905 C 19.565,16.506 20,15.768 20,14.97 V 7.3309 C 19.999,7.3027 19.997,7.2746 19.995,7.2465 20,7.2456 2.0039,7.2186 2.0039,7.2186 Z"/>
 <path style="fill:#c25824" d="M 2.0039,6.8678 C 2.0016,6.9051 2.0003,6.9426 2,6.98 V 14.62 C 2.0002,15.418 2.4354,16.155 3.1416,16.554 L 9.8584,20.35 C 10.565,20.749 11.435,20.749 12.142,20.35 L 18.858,16.554 C 19.565,16.155 20,15.417 20,14.619 V 6.98 C 19.999,6.9518 19.997,6.9237 19.995,6.8956 20,6.8947 2.0039,6.8678 2.0039,6.8678 Z"/>
 <path style="fill:#f36128" d="M 11.054,1 V 1.001 A 2.2846,2.2606 0 0 0 9.8575,1.3019 L 3.1356,5.1426 A 2.2846,2.2606 0 0 0 2,6.9552 2.2846,2.2606 0 0 0 3.1356,8.7862 L 9.8575,12.627 A 2.2846,2.2606 0 0 0 12.142,12.627 L 18.864,8.7862 A 2.2846,2.2606 0 0 0 20,6.9736 2.2846,2.2606 0 0 0 18.864,5.1426 L 12.142,1.3019 A 2.2846,2.2606 0 0 0 11.054,1 Z"/>
 <path style="opacity:0.2;fill:#ffffff" d="M 11.053,1 V 1.0014 A 2.2846,2.2606 0 0 0 9.8581,1.3015 L 3.1362,5.142 A 2.2846,2.2606 0 0 0 2,6.9553 2.2846,2.2606 0 0 0 2.0197,7.1225 2.2846,2.2606 0 0 1 3.1362,5.4929 L 9.8581,1.6524 A 2.2846,2.2606 0 0 1 11.053,1.3522 V 1.3509 A 2.2846,2.2606 0 0 1 12.142,1.6524 L 18.864,5.4929 A 2.2846,2.2606 0 0 1 19.98,7.1383 2.2846,2.2606 0 0 0 20,6.9731 2.2846,2.2606 0 0 0 18.864,5.142 L 12.142,1.3015 A 2.2846,2.2606 0 0 0 11.053,1 Z"/>
 <path style="opacity:0.1" d="M 2.0042,6.8676 C 2.0027,6.8922 2.0021,6.917 2.0014,6.9416 A 2.2846,2.2606 0 0 1 2.0091,6.8676 Z M 2.0007,6.9615 C 2.0006,6.9676 2.0001,6.9738 2,6.98 V 14.62 C 2.0002,15.418 2.4357,16.155 3.1419,16.554 L 9.8581,20.35 C 10.222,20.555 10.594,20.655 11,20.649 V 12.928 A 2.2846,2.2606 0 0 1 9.8574,12.627 L 3.1355,8.7865 A 2.2846,2.2606 0 0 1 2.0007,6.9615 Z"/>
 <path style="opacity:0.1" d="M 2.0197,6.7902 A 2.2846,2.2606 0 0 0 2,6.9553 2.2846,2.2606 0 0 0 3.1362,8.7865 L 9.8581,12.627 A 2.2846,2.2606 0 0 0 12.142,12.627 L 18.864,8.7865 A 2.2846,2.2606 0 0 0 20,6.9731 2.2846,2.2606 0 0 0 19.98,6.8059 2.2846,2.2606 0 0 1 18.864,8.4356 L 12.142,12.276 A 2.2846,2.2606 0 0 1 9.8581,12.276 L 3.1363,8.4356 A 2.2846,2.2606 0 0 1 2.0197,6.7902 Z"/>
 <path style="opacity:0.2" d="M 15.15,10.087 C 13.726,10.898 11.978,11.367 11.09,11.495 10.382,11.597 9.5026,11.608 8.462,11.478 7.6238,10.999 7.1031,10.704 6.5937,10.41 7.366,10.522 8.3056,10.626 9.1828,10.702 10.427,10.808 12.293,10.378 13.719,9.5831 13.814,9.5299 13.909,9.4743 14.003,9.4168 16.143,8.1046 15.963,6.2392 14.203,5.1763 12.23,3.9844 9.5919,3.9306 7.5049,5.2265 6.1039,6.0964 5.71,7.4822 7.2105,8.302 8.3901,8.9466 10.134,8.9977 11.479,8.2473 12.576,7.6351 12.294,6.958 11.849,6.6949 11.425,6.4446 10.618,6.2743 9.8523,6.5729 9.2363,6.8132 9.0444,7.5444 10.297,7.6392 9.7692,7.9794 8.9461,8.0638 8.3077,7.7279 7.0615,7.072 7.8374,6.0559 8.765,5.6495 10.479,4.8985 11.976,5.1299 13.239,5.8925 14.547,6.6822 14.453,8.0904 12.871,9.0226 11.619,9.7602 9.8867,10.291 7.349,9.659 4.8112,9.0266 4.1674,7.6361 4.6704,6.1525 5.0792,4.9903 6.8216,3.7047 9.3031,3.3304 11.785,2.9561 13.772,3.2233 15.62,4.3485 18.233,5.9393 18.254,8.3207 15.15,10.087 V 10.087"/>
 <path style="fill:#e4e4e4" d="M 15.15,9.7366 C 13.726,10.547 11.978,11.017 11.09,11.145 10.201,11.273 9.0252,11.256 7.6238,10.999 L 5.7285,9.9166 C 6.5682,10.079 7.9384,10.244 9.1828,10.351 10.427,10.457 12.293,10.027 13.719,9.2323 13.814,9.1791 13.909,9.1236 14.003,9.066 16.143,7.7538 15.963,5.8884 14.203,4.8255 12.23,3.6336 9.5919,3.5798 7.5049,4.8757 6.1039,5.7456 5.71,7.1314 7.2105,7.9512 8.3901,8.5958 10.134,8.6469 11.479,7.8965 12.576,7.2843 12.294,6.6072 11.849,6.3441 11.425,6.0938 10.618,5.9235 9.8523,6.2221 9.2363,6.4624 9.0444,7.1936 10.297,7.2885 9.7692,7.6286 8.9461,7.713 8.3077,7.3771 7.0615,6.7212 7.8374,5.7051 8.765,5.2987 10.479,4.5477 11.976,4.7792 13.239,5.5417 14.547,6.3314 14.453,7.7396 12.871,8.6718 11.619,9.4094 9.8867,9.9407 7.349,9.3083 4.8112,8.6758 4.1674,7.2853 4.6704,5.8017 5.0792,4.6395 6.8216,3.3539 9.3031,2.9796 11.785,2.6053 13.772,2.8725 15.62,3.9977 18.233,5.5886 18.254,7.9699 15.15,9.7366 V 9.7366"/>
</svg>
